!!!OTL: IN ALLEN GUTEN STUNDEN
!!!ARE: Europa, Mitteleuropa, Deutschland
!!!SCT: F0714
!!!YEM: Copyright 1995, estate of Helmut Schaffrath.
**kern
*ICvox
*Ivox
*M4/4
*k[f#c#g#]
*A:
{4e
=1
4.ee
8dd
4cc#
4b
=2
4.a
8e
4e}
{4a
=3
4b
4a
4dd
4cc#
=4
2b}
{2ee
=5
4.ee
8dd
8cc#
8ee
8dd
8b
=6
4.a
8e
4e}
{4a
=7
4ff#
4ee
4dd
4cc#
=8
2b}
{2b
=9
4b
4b
4.ff#
8dd#
=10
4.ee
8b
4b}
{4cc#
=11
4f#
4f#
4.b
8a
=12
2g#
4r}
{4e
=13
4dd
4b
4g#
4e
=14
4.ee
8dd
4cc#}
{4ee
=15
4a
4a
4dd
8b
8g#
=16
2a
4r}
==
!!!AGN: Geselligkeits -, Bundes - Lied
!!!ONB: ESAC (Essen Associative Code) Database: FINK
!!!AMT: simple quadruple
!!!AIN: vox
!!!EED: Helmut Schaffrath
!!!EEV: 1.0
*-
